packages/IcoMoon/src/FloppyDiskIcon/index.svg

<svg version="1.1" xmlns="http://www.w3.org/2000/svg" width="16" height="16" viewBox="0 0 16 16">
<path d="M14 0h-14v16h16v-14l-2-2zM8 2h2v4h-2v-4zM14 14h-12v-12h1v5h9v-5h1.172l0.828 0.828v11.172z"></path>
</svg>

<svg xmlns="http://www.w3.org/2000/svg" viewBox="0 0 16 16">
  <path d="M14 0H0v16h16V2l-2-2zM8 2h2v4H8V2zm6 12H2V2h1v5h9V2h1.172l.828.828V14z"/>
</svg>
